X:32
T:Begone Dull Care.2voices. JJo.032
S:J.Jones MS,1801,N.Shrops.
A:N Shropshire
Z:Neil Brookes 2006
M:6/8
L:1/8
Q:3/8=100
K:C
[V:1]G|c3d3|e3z2f|gag fef|e3z2G|\
c3d3|e2zzff|efe dcd|c3z2||!
[V:2]G|E3G3|c3z2d|gag fef|e3z2G|\
E3G3|c2zzdd|cdc GGF|E3z2||!
[V:1]e/f/|g2gg2e|f2ff2d|e2e edc|{e}d2zzGG|\
c3d3|e3z2f|efe dcd|c3z2||!
[V:2]e/f/|g2gg2e|f2ff2d|c2cc2E|G2zzGF|\
E3G3|c3z2d|GAG FEF|E3z2||!
[V:1]c3d3|e3z2f|gag fef|e3z2G|c3d3|\
e3z2f|efe dcd|c3z2||!
[V:2]E3G3|c3z2d|efe dcd|c3z2G|\
G3E3|c3z2d|cdc GGF|E3z2||!
[V:1]e/f/|g2gg2e|f2ff2d|eee edc|d2zzGG|\
c2c ddd|e2ee2f|efe dcd|c2z|]
[V:2]c/d/|e2ee2c|d2dd2B|cccc2E|G2zzGF|\
E2E GGG|c2cc2d|c2GG2G|E3|]

